X:589
M:C|
L:1/8
K:A
e|AAcA eAcA|=GGBG dGB=g|AAcA eAcA|Eaef cAA:|
||B|Aaga eaca|B=gdg B=GGB|Aaga eaca|faef cAAB|

